X:1
T:Title
%%score 1 { ( 2 3 ) | ( 4 5 ) }
L:1/8
Q:1/4=80
M:2/4
K:F#
V:1 treble nm="Gesang\nVoice"
V:2 treble nm="Piano"
V:3 treble 
V:4 bass 
V:5 bass 
V:1
"^Allegro con moto" z4 | z4 | z4 | z4 | z4 | z4 | z4 | z4 | z4 | z4 | z4 | z4 | z4 | z4 | z4 | %15
[Q:1/4=70] z4[Q:1/4=60] ||[K:Eb][Q:1/4=80]!mp!"^animato."[Q:1/4=85]"^dolce" B3/2 B/ c3/2 c/ | %17
 (d>f) (e>g) | f (e/d/) (d/c/) (c/B/) | (B2 G) z | B3/2 B/ c3/2 c/ | d3/2 e/ f3/2 B/ | %22
 d (c/B/) (c/B/) (=A/c/) | B3 z |!<(! G G/ G/!<)!!mf! B3/2 c/ | B3/2 A/ A2 | %26
 z/!p!!<(! G/ G/ G/ G3/2 G/!<)! |!>(! G3!>)!!p! G | %28
[Q:1/4=84] z!<(! c/ c/[Q:1/4=82] c/ d/[Q:1/4=77] c/ =B/!<)! |[Q:1/4=73]!mp! e2[Q:1/4=68] z!p! G | %30
[Q:1/4=64] (G/[Q:1/4=62]F/)[Q:1/4=61] (E/[Q:1/4=59]D/)[Q:1/4=56] (C/[Q:1/4=54]D/)[Q:1/4=53] (C/[Q:1/4=50]=B,/) | %31
[Q:1/4=48] C3[Q:1/4=44] z |] %32
V:2
"^Allegro con moto"!p! A2 B2 | c3 d | B>A (A/G/)(G/F/) | G2 C z | A2 B2 | c3 f | %6
!<(! f3 (g/a/)!<)! | g3 z |!mf! (a>g) g(c'/b/) | (a>g) fc' | (d'>c') (c'/b/)(a/b/) | (c'>b) a z | %12
!mp! (a>g) g(c'/b/) | (a>g) ff |!mf! f3!p! (f/e/) | (e/a/!>(!e/c/ ^B/^^c/A)!>)! || %16
[K:Eb]!p!"^a tempo." B3 c | d2 e2 | z f2 d | (e3 B) | z [GB]z[=Ac] | z [Bd]z[df] | z B2 =A | %23
 z (B=A_A) |"_marcato"!mf! [GB]3 [Bc] | B2 A2 |!p! [DG]4 |!>(! G4!>)! | z"_cresc." [Gc]2 [G=B] | %29
 z c2!p! c | ccc[FG=B] | c4 |] %32
V:3
 z [CF]z[B,E] | z [CF]z[CD^^F] | z [DF]zD | z CzC | z [CF]z[B,E] | z [CF]z[DF] | z [FB]z[Fc] | %7
 z [Gc]z[Gc] | z [Be]z[Be] | z czc | z [df]zd | z c z c | z [Be]z[Be] | z czd | %14
 z!>(! ([=Ad]!>)![Gd][^^Gd]) | [Ac] z z2 ||[K:Eb] z [B,E]z[CE] | z [DF]z[EG] | z F2 [DA] | %19
 z [EG]z[EG] | x4 | x4 | x [DF]2 [CE] | z [B,D] x2 | x4 | z FzE | x4 | z [CE]z[CE] | x4 | z G2 G | %30
 [FA][FA][EG]D | [CEG][CEG] [CEG]2 |] %32
V:4
 (F,,/C,/A,) (G,,/C,/B,) | (A,,/F,/A,) (A,,/D,/^^F,) | (B,,/G,/D) (B,,/G,/D) | %3
 (C,,/C,/E,) (C,,/C,/E,) | (F,,/C,/A,) (G,,/C,/B,) | (A,,/F,/A,) (B,,/F,/B,) | %6
 (D,/B,/D) (C,/F,/C) | (E,/C/E) (E,/C/E) |[K:treble] (C/E/G) (C/E/B) | (C/F/A) (C/F/A) | %10
 (B,/D/F) (B,/D/G) | (A,/C/E) (F,/C/F) | (C/E/G) (C/E/B) | (C/F/A) (D/F/A) | z/ (D/F) (E,/^B,/E) | %15
 A, z z2 ||[K:Eb][K:bass]"^colla voce"!p! (E,,/B,,/G,) (F,,/E,/=A,) | (B,,/F,/B,) (B,,/G,/B,) | %18
 B,,/F,/B, B,,/F,/B, | B,,/G,/B, B,,/G,/B, | (B,,/E,/B,) (C,/F,/E) | (D,/F,/D) (G,/D/G) | %22
 F,/B,/ x F,,/F,/ z | (B,,,/B,,/B,/) z/ (D,,/B,,/B,/) z/ | (E,,/B,,/G,) (=E,,/C,/G,) | %25
 (F,,/C,/F,) (C,,/A,,/C,) | (=B,,,/=B,,/G,- G,2) | (C,,/C,/G,- G,2) | (E,/G,/E) (F,/G,/D) | %29
 (E,/G,/E) (E,/G,/E) | [D,,D,]2 [G,,G,]2 | [C,G,][C,G,] [C,G,]2 |] %32
V:5
 x4 | x4 | x4 | x4 | x4 | x4 | x4 | x4 |[K:treble] x4 | x4 | x4 | x4 | x4 | x4 | x4 | %15
 z [EA] z [A,^^CG] ||[K:Eb][K:bass] x4 | x4 | x4 | x4 | x4 | x4 | x4 | x4 | x4 | x4 | x4 | x4 | %28
 x4 | x4 | x4 | x4 |] %32

